X:101
T:
S:Uppt. efter sjökapten N. P. Ahlström, Klintehamn.
M:3/4
L:1/8
K:G
D|D G G2 G E|F G A2 z G|
w:1.~Dä komm en kal i-fran Stok-kolms stad~— nå,
F E D2 z::B|B c e2 e> c|B>A d2 z B|
w:nå, nå, nå. U nät-tä päi-kar dä vill ’n ha~— för
B> A c> A G> F|F G G3:|
w: ti u ti u ti u tal-la-la.
W:2. Han gav si an för ’n uŋg gisäll,
W:   han fräiar ättar a mammäsäll.
W:3. Han gav si an för gous u aigar,
W:   män aigdä int säinä gaŋgäkledar.
